dist/assets/images/header/header.svg

<svg xmlns="https://www.w3.org/2000/svg" xmlns="xlink://www.w3.org/1999/xlink">
	<symbol id="header-facebook" width="9" height="17" viewBox="0 0 9 17" xmlns="https://www.w3.org/2000/svg">
		<path
			d="M5.65597 17V9.24548H8.22501L8.60969 6.2234H5.65597V4.294C5.65597 3.41904 5.89578 2.82278 7.13417 2.82278L8.71368 2.82208V0.119112C8.44051 0.0822826 7.5029 -1.65981e-08 6.41206 -1.65981e-08C4.13475 -1.65981e-08 2.57564 1.40836 2.57564 3.9947V6.2234H-2.3404e-08V9.24548H2.57564V17H5.65597Z"
			fill="#B6BAC7" />
	</symbol>
	<symbol id="header-icon" width="17" height="14" viewBox="0 0 17 14" xmlns="https://www.w3.org/2000/svg">
		<path
			d="M17.0001 2.10651H16.3472C16.1047 2.10651 15.7619 2.45072 15.7619 2.67109V10.6583C15.7619 10.8789 16.1047 11.1796 16.3472 11.1796H17.0001V13.0755H11.084V11.1796H12.3223V2.78361H12.2616L9.36999 13.0755H7.13129L4.277 2.78361H4.20477V11.1796H5.44303V13.0755H0.48999V11.1796H1.12422C1.38542 11.1796 1.72825 10.8789 1.72825 10.6583V2.67109C1.72825 2.45072 1.38542 2.10651 1.12422 2.10651H0.48999V0.210635H6.68355L8.717 7.65872H8.77295L10.8252 0.210635H17.0001V2.10651Z"
			fill="#757E9A" />
	</symbol>	
	<symbol id="header-telegramm" width="15" height="13" viewBox="0 0 15 13" xmlns="https://www.w3.org/2000/svg">
		<path d="M5.81972 12.0232C5.38191 12.0232 5.4563 11.8651 5.3053 11.4664L4.01782 7.41344L13.9283 1.78983"
			fill="#9399AB" />
		<path d="M5.81982 12.0232C6.15768 12.0232 6.30696 11.8754 6.49554 11.7L8.29744 10.0241L6.04979 8.72772"
			fill="#70788E" />
		<path
			d="M6.04945 8.72806L11.4957 12.5768C12.1172 12.9048 12.5657 12.735 12.7205 12.0249L14.9374 2.03246C15.1644 1.16206 14.5906 0.76729 13.996 1.02547L0.978404 5.82666C0.0898302 6.16756 0.0950105 6.64173 0.816436 6.85301L4.15705 7.85032L11.8909 3.18335C12.256 2.97158 12.5911 3.08543 12.3161 3.31891"
			fill="#B6BAC7" />
	</symbol>
	<symbol id="header-twitter" width="18" height="14" viewBox="0 0 18 14" xmlns="https://www.w3.org/2000/svg">
		<path fill-rule="evenodd" clip-rule="evenodd"
			d="M17.0328 1.84041C16.4253 2.11761 15.7726 2.30417 15.0877 2.38898C15.7868 1.95807 16.3239 1.27594 16.5767 0.46342C15.9222 0.862259 15.1973 1.15191 14.4257 1.308C13.8081 0.631966 12.9276 0.210602 11.9535 0.210602C10.0832 0.210602 8.56631 1.76886 8.56631 3.69017C8.56631 3.96313 8.59598 4.22867 8.65402 4.48334C5.83853 4.33759 3.3424 2.95159 1.67204 0.847419C1.38053 1.36154 1.2135 1.95887 1.2135 2.59648C1.2135 3.80359 1.81147 4.86853 2.72005 5.49303C2.16541 5.47448 1.64276 5.31812 1.18615 5.05709V5.10081C1.18615 6.7876 2.35476 8.19347 3.90258 8.51347C3.61882 8.59297 3.31957 8.63537 3.01181 8.63537C2.79357 8.63537 2.581 8.61417 2.37462 8.5731C2.80543 9.95591 4.05659 10.9619 5.53864 10.99C4.37931 11.9228 2.91868 12.4793 1.33113 12.4793C1.05768 12.4793 0.788618 12.4634 0.523682 12.4308C2.02249 13.4183 3.80327 13.9944 5.71599 13.9944C11.946 13.9944 15.3531 8.69155 15.3531 4.09365C15.3531 3.94259 15.3498 3.79286 15.3433 3.64313C16.0053 3.15286 16.5798 2.53937 17.0338 1.84107"
			fill="#6188FF" />
	</symbol>
</svg>

<svg xmlns="http://www.w3.org/2000/svg"><symbol id="header-facebook" viewBox="0 0 9 17"><path d="M5.656 17V9.245h2.569l.385-3.022H5.656V4.294c0-.875.24-1.471 1.478-1.471h1.58V.118A21.19 21.19 0 006.412 0C4.135 0 2.576 1.408 2.576 3.995v2.228H0v3.022h2.576V17h3.08z"/></symbol><symbol id="header-telegramm" viewBox="0 0 15 13"><path d="M5.82 12.023c-.438 0-.364-.158-.515-.557L4.018 7.413l9.91-5.623"/><path d="M5.82 12.023c.338 0 .487-.148.676-.323l1.801-1.676L6.05 8.728"/><path d="M6.05 8.728l5.446 3.849c.621.328 1.07.158 1.224-.552l2.217-9.993c.227-.87-.346-1.265-.941-1.007L.978 5.827c-.888.34-.883.815-.162 1.026l3.341.997 7.734-4.667c.365-.211.7-.098.425.136"/></symbol><symbol id="header-twitter" viewBox="0 0 18 14"><path fill-rule="evenodd" clip-rule="evenodd" d="M17.033 1.84a6.642 6.642 0 01-1.945.549A3.477 3.477 0 0016.577.463a6.673 6.673 0 01-2.151.845A3.34 3.34 0 0011.953.211c-1.87 0-3.387 1.558-3.387 3.48 0 .272.03.538.088.792C5.839 4.338 3.342 2.952 1.672.847a3.536 3.536 0 00-.458 1.75c0 1.207.597 2.272 1.506 2.896a3.308 3.308 0 01-1.534-.436v.044c0 1.687 1.169 3.092 2.717 3.412a3.3 3.3 0 01-1.528.06c.43 1.383 1.682 2.389 3.164 2.417a6.686 6.686 0 01-5.015 1.44 9.402 9.402 0 005.192 1.564c6.23 0 9.637-5.302 9.637-9.9a9.59 9.59 0 00-.01-.45 6.976 6.976 0 001.69-1.803"/></symbol><symbol id="header-icon" viewBox="0 0 17 14"><path d="M17 2.107h-.653c-.242 0-.585.344-.585.564v7.987c0 .22.343.522.585.522H17v1.896h-5.916V11.18h1.238V2.784h-.06L9.37 13.075H7.131L4.277 2.784h-.072v8.396h1.238v1.896H.49V11.18h.634c.261 0 .604-.301.604-.522V2.671c0-.22-.343-.564-.604-.564H.49V.21h6.194l2.033 7.448h.056L10.825.21H17v1.896z"/></symbol></svg>
